actions/24/send_signal.svg

<svg xmlns="http://www.w3.org/2000/svg" viewBox="0 0 24 24" width="24" height="24">
  <defs id="defs3051">
    <style type="text/css" id="current-color-scheme">.ColorScheme-Text {color:#fcfcfc;}</style>
  </defs>
  <g transform="translate(1,1)">
    <path style="fill:currentColor;fill-opacity:1;stroke:none" d="m 8,3 v 1 h 8 c 0,0 2,0 2,2 0,2 0,8 0,10 0,2 -2,2 -2,2 H 8 v 1 h 8 c 0,0 3,0 3,-3 C 19,13 19,9 19,6 19,3 16,3 16,3 Z M 3,8 V 9 H 8 V 8 Z m 1,2 v 1 h 4 v -1 z m 2,2 v 1 h 2 v -1 z" class="ColorScheme-Text"/>
  </g>
</svg>

<svg xmlns="http://www.w3.org/2000/svg" viewBox="0 0 24 24" width="24" height="24">
  <defs id="defs3051">
    <style type="text/css" id="current-color-scheme">
      .ColorScheme-Text {
        color:#eff0f1;
      }
      .ColorScheme-Highlight {
        color:#3daee9;
      }
      </style>
  </defs>
  <g transform="translate(1,1)">
    <path style="fill:currentColor;fill-opacity:1;stroke:none" d="M 8 3 L 8 4 L 18 4 L 18 18 L 8 18 L 8 19 L 18 19 L 19 19 L 19 4 L 19 3 L 8 3 z M 3 8 L 3 9 L 8 9 L 8 8 L 3 8 z M 4 10 L 4 11 L 8 11 L 8 10 L 4 10 z M 6 12 L 6 13 L 8 13 L 8 12 L 6 12 z " class="ColorScheme-Text"/>
  </g>
</svg>
